assets/icons/icon_turbo_2.svg

<svg width="30" height="30" viewBox="0 0 30 30" fill="none" xmlns="http://www.w3.org/2000/svg">
<g clip-path="url(#clip0_2048_923)">
<path d="M11.0411 23.4909C6.70591 21.0915 5.21062 15.4755 7.70277 10.9548C8.49186 9.53284 9.63095 8.33589 11.0121 7.47738L9.99207 10.0275C9.95452 10.1136 9.9348 10.2064 9.93411 10.3004C9.93343 10.3944 9.95178 10.4875 9.98807 10.5741C10.0244 10.6608 10.0778 10.7392 10.1453 10.8046C10.2127 10.8701 10.2927 10.9211 10.3804 10.9548C10.4649 10.9876 10.555 11.0034 10.6456 11.0013C10.7361 10.9992 10.8254 10.9793 10.9083 10.9427C10.9912 10.9061 11.0661 10.8535 11.1286 10.788C11.1912 10.7224 11.2402 10.6452 11.2729 10.5607L12.8436 6.61962C14.0222 6.19693 15.2773 6.03 16.5254 6.12993C17.7735 6.22986 18.986 6.59436 20.0824 7.19919C24.4118 9.58122 25.9071 15.1915 23.4439 19.6889C20.9807 24.1864 15.3705 25.8903 11.0411 23.4909ZM20.7489 5.9705C19.4698 5.2664 18.0543 4.84558 16.5984 4.73658C15.1424 4.62758 13.68 4.83295 12.3104 5.33877L8.18382 4.03474C8.09744 4.00678 8.00639 3.99615 7.91589 4.00346C7.8254 4.01077 7.73724 4.03588 7.65647 4.07734C7.5757 4.1188 7.50391 4.1758 7.44522 4.24507C7.38653 4.31434 7.34209 4.39452 7.31446 4.48101C7.28721 4.56927 7.27812 4.66214 7.28775 4.75402C7.29737 4.8459 7.32551 4.93487 7.37046 5.01557C7.41542 5.09627 7.47626 5.16703 7.54931 5.22357C7.62236 5.28012 7.70611 5.32128 7.7955 5.34456L10.5079 6.20812C8.83889 7.19687 7.4643 8.61348 6.52625 10.3115C5.19291 12.8207 4.89079 15.751 5.68411 18.4794C6.47743 21.2079 8.30363 23.5193 10.7745 24.9224C15.6255 27.6117 21.7052 25.6063 24.603 20.3554C27.5009 15.1915 25.7622 8.74085 20.7489 5.9705Z" fill="white"/>
<path d="M15.3995 17.1331C15.2365 17.3029 15.04 17.4369 14.8225 17.5267C14.605 17.6165 14.3713 17.6601 14.136 17.6547C13.8373 17.6791 13.5402 17.5924 13.3014 17.4113C12.5596 16.3391 13.1391 15.6726 13.9158 15.0119L14.0896 14.8554C14.5533 14.4265 17.5671 11.9576 19.3058 10.6825C18.2046 12.7226 15.9848 16.4782 15.4053 17.1331M20.3896 8.98438C19.6071 8.98438 13.5333 14.1252 13.4811 14.2005L13.3188 14.3454C12.7045 14.8844 11.2729 16.1421 12.5886 17.9909L12.6233 18.0373C12.8233 18.2309 13.0604 18.3821 13.3204 18.4817C13.5804 18.5813 13.8578 18.6273 14.136 18.6168C14.4994 18.6206 14.8596 18.5488 15.1938 18.4062C15.528 18.2635 15.8289 18.053 16.0776 17.788C17.0729 16.3905 17.9844 14.9352 18.8073 13.4297C21.0503 9.56974 20.946 9.44224 20.7257 9.16404C20.6389 9.0626 20.5165 8.9983 20.3838 8.98438" fill="white"/>
<path d="M7 21C7.79112 21 8.56448 20.7654 9.22228 20.3259C9.88008 19.8864 10.3928 19.2616 10.6955 18.5307C10.9983 17.7998 11.0775 16.9956 10.9231 16.2196C10.7688 15.4437 10.3878 14.731 9.82843 14.1716C9.26902 13.6122 8.55628 13.2312 7.78036 13.0769C7.00444 12.9225 6.20017 13.0017 5.46927 13.3045C4.73836 13.6072 4.11365 14.1199 3.67412 14.7777C3.2346 15.4355 3 16.2089 3 17C3 18.0609 3.42143 19.0783 4.17157 19.8284C4.92172 20.5786 5.93913 21 7 21Z" fill="white"/>
<path d="M7 21C7.79112 21 8.56448 20.7654 9.22228 20.3259C9.88008 19.8864 10.3928 19.2616 10.6955 18.5307C10.9983 17.7998 11.0775 16.9956 10.9231 16.2196C10.7688 15.4437 10.3878 14.731 9.82843 14.1716C9.26902 13.6122 8.55628 13.2312 7.78036 13.0769C7.00444 12.9225 6.20017 13.0017 5.46927 13.3045C4.73836 13.6072 4.11365 14.1199 3.67412 14.7777C3.2346 15.4355 3 16.2089 3 17C3 17.5253 3.10346 18.0454 3.30448 18.5307C3.5055 19.016 3.80014 19.457 4.17157 19.8284C4.92172 20.5786 5.93913 21 7 21Z" stroke="#414047" stroke-width="2.11543"/>
<path d="M6.91576 17.9614L7.71769 17.0854C7.87769 16.9255 8.01245 16.7353 8.11608 16.5232C8.18389 16.3584 8.21921 16.1785 8.21955 15.9964C8.22465 15.8569 8.20054 15.7181 8.14925 15.5915C8.09795 15.4648 8.02094 15.354 7.92465 15.2684C7.69898 15.0789 7.4229 14.9848 7.1434 15.002C6.91229 14.9992 6.68321 15.0516 6.47081 15.1559C6.28346 15.2445 6.12071 15.3898 6 15.5761L6.38803 15.9194C6.47285 15.7995 6.58131 15.7042 6.70451 15.6415C6.82771 15.5787 6.96216 15.5502 7.09684 15.5584C7.24358 15.5485 7.38907 15.5942 7.51074 15.6886C7.55946 15.7314 7.59818 15.7872 7.62345 15.8513C7.64873 15.9153 7.65977 15.9855 7.65561 16.0556C7.65366 16.1709 7.6289 16.2842 7.58318 16.387C7.51028 16.5312 7.41771 16.661 7.30897 16.7717L6.11382 18.0739V18.5001H8.33337V17.9614H6.91576Z" fill="#414047"/>
</g>
<defs>
<clipPath id="clip0_2048_923">
<rect width="24" height="22.1106" fill="white" transform="translate(2 4)"/>
</clipPath>
</defs>
</svg>

<svg xmlns="http://www.w3.org/2000/svg" width="30" height="30" fill="none" viewBox="0 0 30 30"><g clip-path="url(#a)"><path fill="#fff" d="M11.041 23.49c-4.335-2.398-5.83-8.014-3.338-12.535a9.55 9.55 0 0 1 3.31-3.478l-1.02 2.55a.695.695 0 0 0 1.136.761.7.7 0 0 0 .144-.227l1.57-3.941a8.82 8.82 0 0 1 7.24.58c4.329 2.381 5.824 7.991 3.36 12.489-2.462 4.497-8.073 6.201-12.402 3.802M20.75 5.97a10.18 10.18 0 0 0-8.439-.631L8.184 4.035a.69.69 0 0 0-.87.446.684.684 0 0 0 .481.864l2.713.863a10.9 10.9 0 0 0-3.982 4.104 10.913 10.913 0 0 0 4.249 14.61c4.85 2.69 10.93.684 13.828-4.567 2.898-5.164 1.16-11.614-3.854-14.384"/><path fill="#fff" d="M15.4 17.133a1.7 1.7 0 0 1-1.264.522 1.22 1.22 0 0 1-.835-.244c-.741-1.072-.162-1.738.615-2.4l.174-.156c.463-.428 3.477-2.897 5.216-4.173-1.101 2.04-3.321 5.796-3.9 6.451m4.984-8.149c-.783 0-6.857 5.141-6.909 5.217l-.162.144c-.615.54-2.046 1.797-.73 3.646l.034.046a2.06 2.06 0 0 0 1.513.58 2.63 2.63 0 0 0 1.942-.829 43 43 0 0 0 2.73-4.358c2.242-3.86 2.138-3.988 1.918-4.266a.52.52 0 0 0-.342-.18M7 21a4 4 0 1 0 0-8 4 4 0 0 0 0 8"/><path stroke="#414047" stroke-width="2.115" d="M7 21a4 4 0 1 0 0-8 4 4 0 0 0 0 8Z"/><path fill="#414047" d="m6.916 17.961.802-.876c.16-.16.294-.35.398-.562.068-.165.103-.344.104-.527a1 1 0 0 0-.07-.405.9.9 0 0 0-.225-.323 1.1 1.1 0 0 0-.782-.266c-.23-.003-.46.05-.672.154-.188.088-.35.234-.471.42l.388.343a.9.9 0 0 1 .317-.277.76.76 0 0 1 .392-.084.6.6 0 0 1 .414.13.4.4 0 0 1 .112.163.5.5 0 0 1 .033.205.9.9 0 0 1-.073.331 1.5 1.5 0 0 1-.274.385l-1.195 1.302v.426h2.22v-.539z"/></g><defs><clipPath id="a"><path fill="#fff" d="M2 4h24v22.111H2z"/></clipPath></defs></svg>
